newicons/crookcatcher.svg

<?xml version="1.0" encoding="UTF-8"?><svg id="a" xmlns="http://www.w3.org/2000/svg" viewBox="0 0 48 48"><defs><style>.k{fill:none;stroke:#fff;stroke-linecap:round;stroke-linejoin:round;}</style></defs><path id="e" class="k" d="M38.65000059,19.13899994c-.00055313,8.08450699-6.55942154,14.63800049-14.65000153,14.63800049-8.09018993,0-14.64889526-6.55288506-14.64999962-14.63700104-.00055218-8.08489609,6.55802822-14.63944721,14.64900017-14.63999939h.00099945c8.0909729,0,14.65000153,6.55410385,14.65000153,14.63899994h0Z"/><path id="f" class="k" d="M34.16299726,19.13899994c0,5.60845184-4.55012894,10.15500069-10.1629982,10.15500069s-10.16300011-4.54654884-10.16300011-10.15499878v-.00000191c0-5.60845184,4.55013084-10.15499973,10.16300011-10.15499973h0c5.61286926,0,10.16300201,4.54654789,10.16300201,10.15499973h-.00000381Z"/><path id="g" class="k" d="M28.30299856,19.13899994c0,2.37482452-1.92651939,4.29999924-4.3029995,4.29999924s-4.3029995-1.92517471-4.3029995-4.29999924,1.92651749-4.30000019,4.3029995-4.30000019,4.3029995,1.92517567,4.3029995,4.30000019Z"/><path id="h" class="k" d="M18.77599813,27.65600014c1.24350166-1.50816917,3.17516899-2.39302444,5.22400093-2.39299965,2.04883003-.00002289,3.98049927.88483238,5.22399902,2.39299965"/><path id="i" class="k" d="M34.35599806,29.45800018c.32235718,1.03921318.48619461,2.12101746.48600006,3.20899963h0c0,5.98289871-4.85412788,10.83300018-10.84199905,10.83300018s-10.84200001-4.85009766-10.84200001-10.83300018h0c.0000124-1.08275223.16248417-2.15938377.48200035-3.19400024"/><path id="j" class="k" d="M25.29399969,37.36000061c.00055122.7141037-.57834435,1.29344559-1.29299927,1.29399872h-.00100136c-.71426582,0-1.29344749-.57828522-1.29400063-1.29199982-.00055122-.7141037.57834435-1.29344559,1.29299927-1.29399872h.00100136c.71465683,0,1.29400063.57889557,1.29400063,1.29299927v-.00099945Z"/></svg>

<svg xmlns="http://www.w3.org/2000/svg" xml:space="preserve" id="svg1" version="1.1" viewBox="0 0 48 48"><defs id="defs1"><style id="style1">.a{fill:none;stroke:#fff;stroke-linecap:round;stroke-linejoin:round}</style></defs><path id="path14193" d="M38.65 19.139A14.65 14.639 0 0 1 24 33.777 14.65 14.639 0 0 1 9.35 19.14 14.65 14.639 0 0 1 24 4.5a14.65 14.639 0 0 1 14.65 14.639Z" style="fill:none;stroke:#fff;stroke-width:1;stroke-linecap:round;stroke-linejoin:round;stroke-dashoffset:1.3;stroke-opacity:1"/><path id="path14191" d="M34.163 19.139A10.163 10.155 0 0 1 24 29.294a10.163 10.155 0 0 1-10.163-10.155A10.163 10.155 0 0 1 24 8.984a10.163 10.155 0 0 1 10.163 10.155Z" style="fill:none;stroke:#fff;stroke-width:1;stroke-linecap:round;stroke-linejoin:round;stroke-dashoffset:1.3;stroke-opacity:1"/><path id="path14189" d="M28.303 19.139a4.303 4.3 0 0 1-4.303 4.3 4.303 4.3 0 0 1-4.303-4.3 4.303 4.3 0 0 1 4.303-4.3 4.303 4.3 0 0 1 4.303 4.3z" style="fill:none;stroke:#fff;stroke-width:1;stroke-linecap:round;stroke-linejoin:round;stroke-dashoffset:1.3;stroke-opacity:1"/><path id="path14187" d="M18.776 27.656A6.573 6.088 0 0 1 24 25.263a6.573 6.088 0 0 1 5.224 2.393" style="fill:none;stroke:#fff;stroke-width:1;stroke-linecap:round;stroke-linejoin:round;stroke-dashoffset:1.3;stroke-opacity:1"/><path id="path14185" d="M34.356 29.458a10.842 10.833 0 0 1 .486 3.209v0A10.842 10.833 0 0 1 24 43.5a10.842 10.833 0 0 1-10.842-10.833 10.842 10.833 0 0 1 .482-3.194" style="fill:none;stroke:#fff;stroke-width:1;stroke-linecap:round;stroke-linejoin:round;stroke-dashoffset:1.3;stroke-opacity:1"/><path id="circle14171" d="M25.294 37.36A1.294 1.293 0 0 1 24 38.654a1.294 1.293 0 0 1-1.294-1.292A1.294 1.293 0 0 1 24 36.068a1.294 1.293 0 0 1 1.294 1.293z" style="fill:none;stroke:#fff;stroke-width:1;stroke-linecap:round;stroke-linejoin:round;stroke-dashoffset:1.3;stroke-opacity:1"/></svg>
